X: 39932
T: Thomond Bridge
R: hornpipe
M: 4/4
K: Gmajor
|:(3def|gedB cedc|B2G2G2 ga|bagf gbag|(3faf d2d3c|(3Bdf b2 (3Ace a2|(3GBd g2 (3FAc f2|fgab c'def|g2b2g2:|
dc|:Bg (3ggg dg (3ggg|bagf edcB|ca (3aaa ca (3aaa|c'bag fedc|
Bg (3ggg dg (3ggg|bagf edcB|(3cde dc BAGF|A2G2G2:|

